!!!ONB: MCCC : IJH0410_03 : Extracted Monophonic Melody
!!!COM: Haydn, Joseph
!!!OPR: String Quartet in B-flat major
!!!OMV: 3
!!!SCT: Hob.III:44 ; Op.50 No.1
!!!ODT: 1787///
**kern
*thru
*k[b-e-]
*B-:
*clefF
*M3/4
4f
=1
4b-
4b-
4dd
=2
4a
4b-
4f
=3
4dd
4dd
4gg
=4
4ee
4ff
4ee-
=5
4cc#
4dd
8b
16a
16b
=6
4cc
8a
16g
16a
4b-
=7
4a
4ee-
8dd
8b-
=8
4f
2r
=9
4r
4r
4b-
=10
4ee-
4dd
4r
=11
4r
4r
4b-[
=12
4b-]
4a
4gg[
=13
4gg]
4ff#
4ff
=14
4ee
4ee-
4dd
=15
4cc
4a
8b-
8dd
=16
4ff
4r
4f
=17
4ff
4ff
4aa
=18
4ee
4ff
4f
=19
4ee-
4ee-
4gg
=20
4dd
4ee-
4gg
=21
4cc
4dd
4ff
=22
4ff
4ee-
4dd
=23
4dd
4cc
4b-[
=24
4b-]
4a
4r
=25
2.r
=26
2.r
=27
2.b-[
=28
4b-]
4a
4bb-[
=29
4bb-]
4aa
4aa-
=30
4gg
4gg-
4ff
=31
4ee-
4dd
4cc
=32
4b-
4r
4f
=33
4b-
4b-
4dd
=34
4a
4b-
4ff
=35
4cc
4ee-
4cc
=36
4b-
4r
8fff
8r
=37
8ddd
8r
8bb-
8r
8ff
8r
=38
8dd
8r
8b-
8r
8b
8r
=39
4cc
4cc
4cc
=40
4cc
4r
8eee-
8r
=41
8ccc
8r
8aa
8r
8ff
8r
=42
8ee-
8r
8cc
8r
4a
=43
4b-
4b-
4b-
=44
4b-
4r
4r
=45
4r
4dd
4ee-
=46
4ee-
4ee-
4ee-
=47
4r
4ee
4ff
=48
4ff
4ff
4ff
=49
2.r
=50
4r
4gg
4aa-
=51
4aa-
4aa-
4gg
=52
4gg
4bb-
4aa
=53
4aa
4ee
4ff
=54
4ff
4ee
4ff
=55
4ff
4ff
4ff
=56
4ff
4.r
8fff
=57
8r
8ddd
8r
8bb-
8r
8ff
=58
8r
8dd
8r
8b-
8r
8a
=59
4g
4g
4g
=60
4g
4.r
8eee-
=61
8r
8ccc
8r
8aa
8r
8ff
=62
8r
8ee-
8r
8cc
8r
8a
=63
4b-
4b-
4b-
=64
4b-
2r
==
*-
